svg/fluentui-system-icons/ic_fluent_pen_prohibited_16_filled.svg

<svg width="16" height="16" viewBox="0 0 16 16" fill="none" xmlns="http://www.w3.org/2000/svg">
<path d="M12.4403 1.56066C11.6927 0.813137 10.4808 0.81311 9.73321 1.5606L2.33829 8.95484C2.15725 9.13586 2.02085 9.35655 1.93989 9.59943L1.02567 12.3421C0.965783 12.5218 1.01254 12.7198 1.14646 12.8538C1.28038 12.9877 1.47846 13.0344 1.65813 12.9746L4.40087 12.0603C4.64368 11.9794 4.86432 11.843 5.04531 11.662L5.10954 11.5978C5.03771 11.2431 5 10.8761 5 10.5002C5 7.46262 7.46243 5.00018 10.5 5.00018C10.876 5.00018 11.2433 5.03792 11.5981 5.10982L12.4402 4.26783C13.1878 3.52029 13.1878 2.30823 12.4403 1.56066ZM6 10.5002C6 12.9855 8.01472 15.0002 10.5 15.0002C12.9853 15.0002 15 12.9855 15 10.5002C15 8.0149 12.9853 6.00018 10.5 6.00018C8.01472 6.00018 6 8.0149 6 10.5002ZM7 10.5002C7 8.56719 8.567 7.00018 10.5 7.00018C11.2862 7.00018 12.0118 7.25939 12.5961 7.69699L7.69681 12.5963C7.2592 12.012 7 11.2864 7 10.5002ZM10.5 14.0002C9.71383 14.0002 8.9882 13.741 8.40391 13.3034L13.3032 8.4041C13.7408 8.98839 14 9.71402 14 10.5002C14 12.4332 12.433 14.0002 10.5 14.0002Z" fill="#212121"/>
</svg>

<svg xmlns="http://www.w3.org/2000/svg" width="16" height="16"><path d="M12.44 1.56a1.914 1.914 0 0 0-2.707 0L2.338 8.956a1.649 1.649 0 0 0-.398.644l-.914 2.743a.5.5 0 0 0 .632.633l2.743-.915c.243-.08.463-.217.644-.398l.065-.064a5.5 5.5 0 0 1 6.489-6.488l.841-.842a1.914 1.914 0 0 0 0-2.707ZM6 10.5a4.5 4.5 0 1 0 9 0 4.5 4.5 0 0 0-9 0Zm1 0a3.5 3.5 0 0 1 5.596-2.803l-4.9 4.9A3.484 3.484 0 0 1 7 10.5Zm3.5 3.5a3.482 3.482 0 0 1-2.096-.697l4.9-4.899A3.5 3.5 0 0 1 10.5 14Z"/></svg>
